X: 131
M: 3/4
L: 1/8
K: Ab
E2 | A2 c2 (dc) | c2 A2 A2 | B2 (dc) (BA) | G2 E2 E2 | A2 (cB) (AG) |
d2 c2 B2 | c2 (AB) (cd) | c2 B2 A2 | G2 e2 =d2 | e4 E2 | A2 c2 (ed) |
c2 A2 A2 | B2 (dc) (BA) | G2 E2 E2 | A2 (dc) (AG) | F2 D2 F2 | E2 A2 G2 | A4 |]


